X:20
T:Little Jimmy Stephen
C:Tuq
Z:robin.beech@mcgill.ca
S:Tuq: Nicolas Williams, Greg Brown, Yann Falquet
R:reel
M:4/4
L:1/8
K:Dmin
D3D- DEFE | DCDE DCA,C | D3D- DEFD | A3A- ABA2 ::
defe dcAc | e3e- efe2 | defe dcAd | cAGE EDD2 :: 
DA,A,F ECCE | DEFE D2DF | ECGC ACGC | ECGC FCEF |
DA,A,D DB,B,D | GCCD cDDc | dDDc- cd/c/AG | EDCA, D4 :|
